icons/map-pin-outline.svg

<svg xmlns="http://www.w3.org/2000/svg" width="24" height="24" viewBox="0 0 24 24">
  <path d="M12,1 C16.6004136,1 20,4.3546321 20,9.27272727 C20,13.2206895 17.5492843,17.6765362 12.7204869,22.6934686 C12.3110108,23.1188983 11.6240132,23.0987698 11.2401478,22.6500958 C6.42959134,17.0273675 4,12.6099287 4,9.27272727 C4,4.71219697 7.57298958,1 12,1 Z M12,3 C8.69502392,3 6,5.80002485 6,9.27272727 C6,11.801603 7.92890679,15.4893402 11.8256533,20.2358152 L11.8256533,20.2358152 L12.041,20.496 L12.3036206,20.2103008 C16.0110817,16.1151702 17.8909976,12.5445912 17.9953949,9.53667085 L17.9953949,9.53667085 L18,9.27272727 C18,5.46520493 15.5017597,3 12,3 Z M12,5 C14.209139,5 16,6.790861 16,9 C16,11.209139 14.209139,13 12,13 C9.790861,13 8,11.209139 8,9 C8,6.790861 9.790861,5 12,5 Z M12,7 C10.8954305,7 10,7.8954305 10,9 C10,10.1045695 10.8954305,11 12,11 C13.1045695,11 14,10.1045695 14,9 C14,7.8954305 13.1045695,7 12,7 Z"/>
</svg>

<svg xmlns="http://www.w3.org/2000/svg" viewBox="0 0 24 24">
  <path d="M12 1c4.6 0 8 3.35 8 8.27 0 3.95-2.45 8.4-7.28 13.42a1 1 0 0 1-1.48-.04C6.43 17.03 4 12.61 4 9.27A8.14 8.14 0 0 1 12 1zm0 2C8.7 3 6 5.8 6 9.27c0 2.53 1.93 6.22 5.83 10.97l.21.26.26-.29c3.71-4.1 5.6-7.67 5.7-10.67v-.27C18 5.47 15.5 3 12 3zm0 2a4 4 0 1 1 0 8 4 4 0 0 1 0-8zm0 2a2 2 0 1 0 0 4 2 2 0 0 0 0-4z"/>
</svg>
